X: 2272
T: The Haggies o' Dunbar.   a Reel.
%R: reel
B: Niel Gow & Sons "Complete Repository" v.2 p.27 #2
Z: 2021 John Chambers <jc:trillian.mit.edu>
N: The extra naturals in bar 6 were due to the book's staff break in the middle of the bar.
N: They were left as-is but may be deleted if you prefer.
M: C|
L: 1/8
K: A
% - - - - - - - - - -
% Voice 1 reformatted for 2 6-bar lines, eliminating the staff bread in the middle of a bar.
V: 1 staves=2
e |\
{d}c>B Ac E/E/E =G2- | GB/c/ d=G {=c}B2GB |\
{d}c>B Ac E/E/E A2- | A/c/d ed Tc2A :| c |\
Ac/d/ eA cAeA | =GB/c/ dG {=c}TB2=GB |
Ac/d/ eA cAeA | Ac/d/ ed Tc2Ac ||\
Ac/d/ eA cAeA | =GB/c/ dG {=c}TB2GB |\
c>BAc E/E/E A2 | (a/g/f/e/) a>c Tc2A |]
% - - - - - - - - - -
% Voice 2 preserves the staff layout in the book.
V: 2 clef=bass middle=d
z |\
a2a2 e2c2 | B2=G2 G2G2 |\
A2A2 a2a2 | [a2A2][a2A2] [a2A2][aA] :| z |\
[a2A2][a2A2] [a2A2][a2A2] | [=g2=G2][g2G2]
[=g2=G2][g2G2] |\
[a2A2][a2A2] [a2A2][a2A2] | [a2A2][a2A2] [a2A2][a2A2] ||\
[a2A2][a2A2] [a2A2][a2A2] | [=g2=G2][g2G2] [g2G2][g2G2] |\
[a2A2][a2A2] [a2A2][a2A2] | [e2E2][e2E2] [a2A2][aA] |]


